X: 43007
T: Willows Peccadilloes
R: reel
M: 4/4
K: Eminor
G~E3 GEDE|G~E3 GABA|G~E3 GED2|~D3E FABA|
G~E3 GEDE|G~E3 GABA|G~E3 GED2|~D3E F~A3:|
Bdeg edBA|B~E3 GEDA|Bdeg edeg|~a3f gfed|
Bdeg edBA|B~E3 GEDA|G~E3 GED2 ~D3E FABA:|

